X:1
T:The Wheels on the Bus
C:Traditional
M:4/4
L:1/4
Q:1/4=100
K:G
B B B B | B2 B B | c d e2 | d2 c d |
e e e e | e2 e e | d c B2 | A2 G2 |]
w: The wheels on the bus go round and round | round and round round and round | The wheels on the bus go | round and round all day long |
w: The horn on the bus goes beep beep beep | beep beep beep beep beep beep | The horn on the bus goes | beep beep beep all day long |
